Adwaita++-Dark/actions/22/view-certificate-server-configure.svg

<svg xmlns="http://www.w3.org/2000/svg" width="22" height="22" viewBox="0 0 22 22">
 <defs>
  <style id="current-color-scheme" type="text/css">
   .ColorScheme-Text { color:#E6DDFF; } .ColorScheme-Highlight { color:#4285f4; }
  </style>
 </defs>
 <path style="fill:currentColor" class="ColorScheme-Text" d="M 0 1 L 0 14.996094 C 3 14.995094 6 14.996047 9 14.998047 L 9 8.9980469 L 15 8.9980469 L 15 9 L 16 9 L 16 1.0039062 C 10.667 1.0059063 5.333 0.998 0 1 z M 9 3 L 15 3 L 15 4 L 9 4 L 9 3 z M 3.5 4 C 4.331 4 5 4.6673469 5 5.4980469 L 5 6.9980469 L 6 6.9980469 L 6 9.9980469 L 1 9.9980469 L 1 6.9980469 L 2 6.9980469 L 2 5.4980469 C 2 4.6673469 2.669 4 3.5 4 z M 3.5 4.9980469 C 3.223 4.9980469 3 5.2211469 3 5.4980469 L 3 6.9980469 L 4 6.9980469 L 4 5.4980469 C 4 5.2211469 3.777 4.9980469 3.5 4.9980469 z M 9 5.9980469 L 15 5.9980469 L 15 6.9980469 L 9 6.9980469 L 9 5.9980469 z M 12 10 L 12 10.585938 L 11.585938 10.171875 L 10.171875 11.585938 L 10.585938 12 L 10 12 L 10 14 L 10.585938 14 L 10.171875 14.414062 L 11.585938 15.828125 L 12 15.414062 L 12 16 L 14 16 L 14 15.414062 L 14.414062 15.828125 L 15.828125 14.414062 L 15.414062 14 L 16 14 L 16 12 L 15.414062 12 L 15.828125 11.585938 L 14.414062 10.171875 L 14 10.585938 L 14 10 L 12 10 z M 13 12 A 1 1 0 0 1 14 13 A 1 1 0 0 1 13 14 A 1 1 0 0 1 12 13 A 1 1 0 0 1 13 12 z" transform="translate(3 3)"/>
</svg>

<svg height="22" viewBox="0 0 22 22" width="22" xmlns="http://www.w3.org/2000/svg">
  <path d="m0 1v13.996094c3-.001 6-.000047 9 .001953v-6.0000001h6v.0019531h1v-7.9960938c-5.333.0020001-10.667-.0059062-16-.0039062zm9 2h6v1h-6zm-5.5 1c.831 0 1.5.6673469 1.5 1.4980469v1.5h1v3h-5v-3h1v-1.5c0-.8307.669-1.4980469 1.5-1.4980469zm0 .9980469c-.277 0-.5.2231-.5.5v1.5h1v-1.5c0-.2769-.223-.5-.5-.5zm5.5 1h6v1h-6zm3 4.0019531v.585938l-.414062-.414063-1.414063 1.414063.414063.414062h-.585938v2h.585938l-.414063.414062 1.414063 1.414063.414062-.414063v.585938h2v-.585938l.414062.414063 1.414063-1.414063-.414063-.414062h.585938v-2h-.585938l.414063-.414062-1.414063-1.414063-.414062.414063v-.585938zm1 2a1 1 0 0 1 1 1 1 1 0 0 1 -1 1 1 1 0 0 1 -1-1 1 1 0 0 1 1-1z" fill="#e6ddff" transform="translate(3 3)"/>
</svg>
